gtk/icons/scalable/actions/folder-new-symbolic.svg

<?xml version="1.0" encoding="UTF-8"?>
<svg height="16px" viewBox="0 0 16 16" width="16px" xmlns="http://www.w3.org/2000/svg">
    <g fill="#2e3436">
        <path d="m 11.996094 10.007812 v 1.996094 h -2 v 1.996094 h 2 v 2 h 2 v -2 h 2 v -1.996094 h -2 v -1.996094 z m 0 0"/>
        <path d="m 1.996094 1 s -0.457032 -0.015625 -0.945313 0.230469 c -0.488281 0.246093 -1.05468725 0.9375 -1.05468725 1.769531 v 10 s -0.01171875 0.457031 0.23046825 0.949219 c 0.246094 0.488281 0.9375 1.050781 1.769532 1.050781 h 7 v -2 h -7 v -10 h 4.585937 l 1.707031 1.707031 c 0.1875 0.1875 0.445313 0.292969 0.707032 0.292969 h 5 v 4 h 2 v -4 s 0.015625 -0.457031 -0.230469 -0.949219 c -0.242187 -0.488281 -0.933594 -1.050781 -1.769531 -1.050781 h -4.585938 l -1.707031 -1.707031 c -0.1875 -0.1875 -0.441406 -0.292969 -0.707031 -0.292969 z m 0 0" fill-rule="evenodd"/>
    </g>
</svg>

<svg xmlns="http://www.w3.org/2000/svg" width="16" height="16"><g fill="#2e3436"><path d="M12 10.008v1.997h-2v1.997h2v1.996h2v-1.996h2v-1.997h-2v-1.997z"/><path d="M2 1s-.459-.014-.947.23C.564 1.475 0 2.167 0 3v10s-.014.459.23.947C.476 14.436 1.168 15 2 15h7v-2H2V3h4.586l1.707 1.707A1 1 0 009 5h5v4h2V5s.014-.459-.23-.947C15.525 3.564 14.833 3 14 3H9.414L7.707 1.293A1 1 0 007 1z" style="line-height:normal;font-variant-ligatures:normal;font-variant-position:normal;font-variant-caps:normal;font-variant-numeric:normal;font-variant-alternates:normal;font-feature-settings:normal;text-indent:0;text-align:start;text-decoration-line:none;text-decoration-style:solid;text-decoration-color:#000;text-transform:none;text-orientation:mixed;white-space:normal;shape-padding:0;isolation:auto;mix-blend-mode:normal;solid-color:#000;solid-opacity:1" color="#000" font-weight="400" font-family="sans-serif" overflow="visible" fill-rule="evenodd"/></g></svg>
